X:624
T:The Dublin reel
C:anon.
O:Ireland
B:Francis O'Neill: "The Dance Music of Ireland" (1907) no. 624
R:Reel
m:Tn3 = n(3n/o/n/ m/n/
M:C|
L:1/8
K:D
dF ({G}(3(F)EF) dfec|dF ({G}(3(F)EF) AFEF|dF ({G}(3(F)EF) dfed|[1cABG AFEA:|[2cABc ABcd||e2 (3(cBA) EAcf|
(3(efe) cA BF ({G}(3(F)EF)|e2 (3(cBA) EAcA|(3(Bcd) cA BF ({G}(3(F)EF)|e2 (3(cBA) ecfc|eAcA BF ({G}(3(F)EF)|d3c dfed|cABG AFEA||
Td3c dAFA|dcdB AFEA|d2(dc) dfed|cABc AFEA|Td3c dAFA|dcdB AFEA|({e}d)cdf e2(ae)|fdBc dfec|]
